contributed-vectors/getapps.svg

<svg xmlns="http://www.w3.org/2000/svg" width="192" height="192" fill="none"><g fill-rule="evenodd" clip-path="url(#a)" clip-rule="evenodd"><path fill="#FF837D" d="M89.66 47.59 20 117.25V29c0-5.52 4.48-10 10-10h31.07l28.59 28.59Z"/><path fill="#9ABEFF" d="M173 29v31.07l-28.59 28.59L96.5 40.75 74.75 19H163c5.52 0 10 4.48 10 10Z"/><path fill="#BD9AFF" d="M173 73.75V162c0 5.52-4.48 10-10 10h-31.06l-28.59-28.59 47.9-47.91L173 73.75Z"/><path fill="#98DC9A" d="M118.25 172H30c-5.52 0-10-4.48-10-10v-31.06l28.6-28.59 47.9 47.9L118.25 172Z"/><path fill="#fff" d="M173 60.07v13.68L151.25 95.5l-47.9 47.91L131.94 172h-13.69L96.5 150.25l-47.9-47.9L20 130.94v-13.69l69.66-69.66L61.07 19h13.68L96.5 40.75l47.91 47.91L173 60.07Z"/><path fill="#9ABEFF" d="m122.15 97.07-12.94 12.95-12.65 12.65-5.13-5.13-20.58-20.57 5.17-5.1 11.03 11.03c3.07 3.06 6.14 6.13 9.2 9.2.1.1.21.21.31.3l3.63-3.63 4.71-4.71 12.18-12.19 5.07 5.2Z"/><path fill="#98DC9A" d="M92.93 68.33v40.44l3.32 3.33c.1.1.21.21.31.3l3.63-3.63V68.33h-7.26Z"/></g><defs><clipPath id="a"><path fill="#fff" d="M0 0h192v192H0z"/></clipPath></defs></svg>

<svg width="192" height="192" viewBox="0 0 192 192" fill="none" xmlns="http://www.w3.org/2000/svg">
<g clip-path="url(#clip0)">
<path fill-rule="evenodd" clip-rule="evenodd" d="M89.66 47.59L20 117.25V29C20 23.48 24.48 19 30 19H61.07L89.66 47.59Z" fill="#FF837D"/>
<path fill-rule="evenodd" clip-rule="evenodd" d="M173 29V60.07L144.41 88.66L96.5 40.75L74.75 19H163C168.52 19 173 23.48 173 29Z" fill="#9ABEFF"/>
<path fill-rule="evenodd" clip-rule="evenodd" d="M173 73.75V162C173 167.52 168.52 172 163 172H131.94L103.35 143.41L151.25 95.5L173 73.75Z" fill="#BD9AFF"/>
<path fill-rule="evenodd" clip-rule="evenodd" d="M118.25 172H30C24.48 172 20 167.52 20 162V130.94L48.6 102.35L96.5 150.25L118.25 172Z" fill="#98DC9A"/>
<path fill-rule="evenodd" clip-rule="evenodd" d="M173 60.07V73.75L151.25 95.5L103.35 143.41L131.94 172H118.25L96.5 150.25L48.6 102.35L20 130.94V117.25L89.66 47.59L61.07 19H74.75L96.5 40.75L144.41 88.66L173 60.07Z" fill="white"/>
<path fill-rule="evenodd" clip-rule="evenodd" d="M122.15 97.07L109.21 110.02L96.56 122.67L91.43 117.54L70.85 96.97L76.02 91.87L87.05 102.9C90.12 105.96 93.19 109.03 96.25 112.1C96.35 112.2 96.46 112.31 96.56 112.4C97.77 111.19 98.98 109.98 100.19 108.77C101.76 107.2 103.33 105.63 104.9 104.06L117.08 91.87L122.15 97.07Z" fill="#9ABEFF"/>
<path fill-rule="evenodd" clip-rule="evenodd" d="M92.93 68.33V108.77L96.25 112.1C96.35 112.2 96.46 112.31 96.56 112.4C97.77 111.19 98.98 109.98 100.19 108.77V68.33H92.93Z" fill="#98DC9A"/>
</g>
<defs>
<clipPath id="clip0">
<rect width="192" height="192" fill="white"/>
</clipPath>
</defs>
</svg>
